X:524
T:Haughton House
C:James Mitchell
S:Single printed sheet
Z:Nigel Gatherer
M:4/4
L:1/8
K:G
B/A/ | G>BD>G             B,>D       G,>B  | cBAG     E2  E
B/A/ | GB/G/    DG/D/     B,D/B,/    G,>B  | c/B/c/e/ d>F G2 
B/A/ | GB/G/    DG/D/     B,D/B,/    G,>B  | cBAG     E2 E
B/A/ | G/F/E/D/ E/D/C/B,/ D/C/B,/A,/ G,>B  | c/B/c/e/ d>F G2 G ||
e/f/ | gdBG               edBG             | cBAG     E2  E
e/f/ | gb/g/    dg/d/     Bd/B/      GA/B/ | c/B/c/e/ d>F G2 G 
e/f/ | gdBG               edBG             | cBAG     E2  E
B/A/ | G/F/E/D/ E/D/C/B,/ D/C/B,/A,/ G,>B  | c/B/c/e/ d>F G2 G |]
